X: 34105
T: Reel Des Sucres
R: reel
M: 4/4
K: Dmajor
|:A2 A<B A2G2|F2F2 F2A2|d2f2 a2g2|f2d2 c2d2|
e2f2 g<ag<f|g2e2 e2e2|g2g/a3/4g3/4 fg/f3/4ed3/4|c2c2 B2c2|1 d2FG|2 dxff:|

